X:44
T:Milonga De Mis Amores
C:Laurenz
N:TablEdited by Christian Pignard
L:1/8
Q:1/4=102
M:2/4
K:C
z2 z/E/^D/E/ |: A/E/^D/E/ c/E/D/E/ | B/E/^D/E/ d/E/D/E/ | c/E/^D/E/ B/E/D/E/ | 
A/E/^D/E/ c/E/D/E/ | B/E/^D/E/ A/E/D/E/ | ^G/E/D/E/ F/D/^C/D/ | E/C/B,/C/ D/C/B,/C/ | 
|1 A,2 z/E/^D/E/ :|2 A,2 z/^G/A/B/ | c/B/A/G/ F/E/D/^C/ | D3/2^C/ D/^D/E | zA ^GB | 
K:A
|: A3/2e/ c/de/ | z/e/c/d/ ed/c/ | e/d/c/e/ d/c/d | zc dB/d/ | zc3 | z/c/c/c/ c/c/c/c/ | 
d/c/=c/^c/ f=f | e3/2e/ e/e/e/e/ | f/e/c/A/ dc | BA GF | E3/2G/ B/d/c | ze dB :| 
K:C
vA/vE/vE/ve/ vE/vE/vd/vE/ | vc/vE/vE/vd/ vE/vE/vc/vE/ | vB/vE/vE/vd/ vE/vE/vc/vE/ | 
vB/vE/vE/vc/ vE/vE/vB/vE/ | vA/vE/vE/ve/ vE/vE/vd/vE/ | c/A/c/B/ d/cB/ | c/B/_B/=B/ d/^c/e | 
z^d =d^c/d/ | zc3 | z/A/c/B/ d/c/B/c/ | z/B/_B/=B/ d/^c/=c | zB A^G | B/_B/A3 | 
z/A,/C/B,/ D/CB,/ | C/B,/_B,/=B,/ D/C/E/D/ | F/E/A/^G/ c3/2B/ | BA3 | z/A/c/B/ d/cB/ | 
c/B/_B/=B/ d/^c/=c | zB A^G | A2 z/E/^D/E/ | A4 | z/A,/C/A,/ D/CB,/ | C/B,/_B,/=B,/ D/^C/E | 
z^D =D/^C/D | zC3 | z/A/c/B/ d/c/B/c/ | z/B/_B/=B/ d/^c/=c | zB A^G | B/_B/A z2 | 
z/A,/C/A,/ D/CB,/ | C/B,/_B,/=B,/ D/C/E/D/ | F/E/A/^G/ c3/2B/ | BA3 | z/A/c/B/ d/c/B/c/ | 
z/B/_B/=B/ d/^c/=c | zB A^G | A2 z/E/^D/E/ |: A/E/^D/E/ c/E/D/E/ | B/E/^D/E/ d/E/D/E/ | 
c/E/^D/E/ B/E/D/E/ | A/E/^D/E/ c/E/D/E/ | B/E/^D/E/ A/E/D/E/ |1 ^G/E/D/E/ F/D/^C/D/ | 
E/C/B,/C/ D/C/B,/C/ | A,2 z/E/^D/E/ :|2 ^G/E/D/E/ F/d/^c/d/ | e/c/B/c/ d/c/B/c/ | 
A2 z/^G/A/B/ | c/B/A/G/ F/e/d/^c/ | d^c de | (3f/e/d/(3e/d/c/ (3d/c/B/(3c/B/^G/ | 
A3/2e/ a2 | 
 

